Origami/48x48/apps/KoboDeluxe.svg

<svg width="48" height="48" version="1.1" viewBox="0 0 48 48" xmlns="http://www.w3.org/2000/svg">
 <path d="m24.023032 8.0033365c-1.336281-0.052663-2.595993 0.521394-3.264816 1.4877903l-16.632693 24.029921c-0.6467939 2.325047 1.2762215 4.054455 4.1523898 5.322623 5.3950068 2.378783 14.143665 3.134706 15.576309 3.154797 2.362198 0.04601 9.520352-0.945092 14.631174-2.80397 3.887461-1.413924 6.590411-3.329912 5.097293-5.67345l-16.632693-24.029921c-0.608447-0.8791703-1.711306-1.4397593-2.926964-1.4877903z" style="opacity:.2"/>
 <path d="m24.023032 4.0036318c-1.336281-0.0573098-2.595993 0.5673993-3.264816 1.6190658l-16.632693 26.150208c-0.6467939 2.530197 1.2762215 4.412201 4.1523898 5.792265 5.3950068 2.588676 14.143665 3.411298 15.576309 3.433162 2.362198 0.05006 9.520352-1.028483 14.631174-3.051379 3.887461-1.538682 6.590411-3.623728 5.097293-6.174048l-16.632693-26.150208c-0.608447-0.956744-1.711306-1.5667968-2.926964-1.6190658z" style="fill:#8e8e8e"/>
 <path d="m24.023438 5.0039062c-0.0434-0.00186-0.08569 0.00238-0.128907 0.00195-0.821241 0.020438-1.59279 0.2735177-2.269531 0.7109375-0.341807 0.2482374-0.640818 0.5503028-0.867188 0.90625l-1.412109 2.2207063c-0.214749 0.6704455-0.345703 1.392892-0.345703 2.15625v28c0 3 2.865625 4 5 4s5-1 5-4v-28c0-0.477393-0.05754-0.936207-0.144531-1.3808594l-1.90625-2.9960937c-0.608447-0.956744-1.710124-1.5668717-2.925781-1.6191407z" style="opacity:.2"/>
 <path d="m24.023438 4.0039062c-0.0434-0.00186-0.08569 0.00238-0.128907 0.00195-0.821241 0.020438-1.59279 0.2735177-2.269531 0.7109375-0.341807 0.2482374-0.640818 0.5503028-0.867188 0.90625l-1.412109 2.2207063c-0.214749 0.6704455-0.345703 1.392892-0.345703 2.15625v28c0 3 2.865625 4 5 4s5-1 5-4v-28c0-0.4773927-0.057543-0.9362066-0.144531-1.3808594l-1.90625-2.9960937c-0.608447-0.956744-1.710124-1.5668717-2.925781-1.6191407z" style="fill:#686868"/>
 <rect x="10" y="18" width="4" height="24" rx="3" ry="3" style="opacity:.2"/>
 <path d="m24.023438 4.0039062c-1.336281-0.0573098-2.596802 0.5674742-3.265626 1.6191407l-16.632812 26.150391c-0.1298728 0.50805-0.1521516 0.988346-0.0878906 1.445312 0.020636-0.146301 0.0493213-0.294433 0.0878906-0.445312l16.632812-26.150391c0.668824-1.0516665 1.929345-1.6764507 3.265626-1.6191407 1.215657 0.052269 2.317334 0.6623967 2.925781 1.6191407l16.632812 26.150391c0.180286 0.307936 0.296139 0.608116 0.359375 0.902343 0.129385-0.601659 0.030954-1.235643-0.359375-1.902343l-16.632812-26.150391c-0.608447-0.956744-1.710124-1.5668717-2.925781-1.6191407z" style="fill:#ffffff;opacity:.1"/>
 <rect x="10" y="17" width="4" height="24" rx="3" ry="3" style="fill:#afafb1"/>
 <rect x="34" y="18" width="4" height="24" rx="3" ry="3" style="opacity:.2"/>
 <rect x="34" y="17" width="4" height="24" rx="3" ry="3" style="fill:#afafb1"/>
 <ellipse cx="24" cy="30" rx="4" ry="5" style="opacity:.2"/>
 <ellipse cx="24" cy="29" rx="4" ry="5" style="fill:#64b0ff"/>
 <path d="m12 17c-1.108 0-2 1.338-2 3v1c0-1.662 0.892-3 2-3s2 1.338 2 3v-1c0-1.662-0.892-3-2-3z" style="fill:#ffffff;opacity:.2"/>
 <path d="m36 17c-1.108 0-2 1.338-2 3v1c0-1.662 0.892-3 2-3s2 1.338 2 3v-1c0-1.662-0.892-3-2-3z" style="fill:#ffffff;opacity:.2"/>
 <path d="M 24 24 A 4 5 0 0 0 20 29 A 4 5 0 0 0 20.021484 29.478516 A 4 5 0 0 1 24 25 A 4 5 0 0 1 27.978516 29.521484 A 4 5 0 0 0 28 29 A 4 5 0 0 0 24 24 z" style="fill:#ffffff;opacity:.2"/>
</svg>

<svg xmlns="http://www.w3.org/2000/svg" width="48" height="48" version="1.1" viewBox="0 0 48 48">
 <path style="opacity:0.2" d="m 24.023032,8.0033365 c -1.336281,-0.052663 -2.595993,0.521394 -3.264816,1.4877903 L 4.1255234,33.521048 c -0.6467939,2.325047 1.2762215,4.054455 4.1523898,5.322623 5.3950068,2.378783 14.1436648,3.134706 15.5763088,3.154797 2.362198,0.04601 9.520352,-0.945092 14.631174,-2.80397 3.887461,-1.413924 6.590411,-3.329912 5.097293,-5.67345 L 26.949996,9.4911268 C 26.341549,8.6119565 25.23869,8.0513675 24.023032,8.0033365 Z"/>
 <path style="fill:#8e8e8e" d="M 24.023032,4.0036318 C 22.686751,3.946322 21.427039,4.5710311 20.758216,5.6226976 L 4.1255234,31.772906 c -0.6467939,2.530197 1.2762215,4.412201 4.1523898,5.792265 5.3950068,2.588676 14.1436648,3.411298 15.5763088,3.433162 2.362198,0.05006 9.520352,-1.028483 14.631174,-3.051379 3.887461,-1.538682 6.590411,-3.623728 5.097293,-6.174048 L 26.949996,5.6226976 C 26.341549,4.6659536 25.23869,4.0559008 24.023032,4.0036318 Z"/>
 <path style="opacity:0.2" d="m 24.023438,5.0039062 c -0.0434,-0.00186 -0.08569,0.00238 -0.128907,0.00195 -0.821241,0.020438 -1.59279,0.2735177 -2.269531,0.7109375 -0.341807,0.2482374 -0.640818,0.5503028 -0.867188,0.90625 L 19.345703,8.84375 C 19.130954,9.5141955 19,10.236642 19,11 v 28 c 0,3 2.865625,4 5,4 2.134375,0 5,-1 5,-4 V 11 c 0,-0.477393 -0.05754,-0.936207 -0.144531,-1.3808594 L 26.949219,6.6230469 C 26.340772,5.6663029 25.239095,5.0561752 24.023438,5.0039062 Z"/>
 <path style="fill:#686868" d="m 24.023438,4.0039062 c -0.0434,-0.00186 -0.08569,0.00238 -0.128907,0.00195 -0.821241,0.020438 -1.59279,0.2735177 -2.269531,0.7109375 -0.341807,0.2482374 -0.640818,0.5503028 -0.867188,0.90625 L 19.345703,7.84375 C 19.130954,8.5141955 19,9.236642 19,10 v 28 c 0,3 2.865625,4 5,4 2.134375,0 5,-1 5,-4 V 10 C 29,9.5226073 28.942457,9.0637934 28.855469,8.6191406 L 26.949219,5.6230469 C 26.340772,4.6663029 25.239095,4.0561752 24.023438,4.0039062 Z"/>
 <rect style="opacity:0.2" width="4" height="24" x="10" y="18" rx="3" ry="3"/>
 <path style="opacity:0.1;fill:#ffffff" d="M 24.023438 4.0039062 C 22.687157 3.9465964 21.426636 4.5713804 20.757812 5.6230469 L 4.125 31.773438 C 3.9951272 32.281488 3.9728484 32.761784 4.0371094 33.21875 C 4.0577454 33.072449 4.0864307 32.924317 4.125 32.773438 L 20.757812 6.6230469 C 21.426636 5.5713804 22.687157 4.9465962 24.023438 5.0039062 C 25.239095 5.0561752 26.340772 5.6663029 26.949219 6.6230469 L 43.582031 32.773438 C 43.762317 33.081374 43.87817 33.381554 43.941406 33.675781 C 44.070791 33.074122 43.97236 32.440138 43.582031 31.773438 L 26.949219 5.6230469 C 26.340772 4.6663029 25.239095 4.0561752 24.023438 4.0039062 z"/>
 <rect style="fill:#afafb1" width="4" height="24" x="10" y="17" rx="3" ry="3"/>
 <rect style="opacity:0.2" width="4" height="24" x="34" y="18" rx="3" ry="3"/>
 <rect style="fill:#afafb1" width="4" height="24" x="34" y="17" rx="3" ry="3"/>
 <ellipse style="opacity:0.2" cx="24" cy="30" rx="4" ry="5"/>
 <ellipse style="fill:#64b0ff" cx="24" cy="29" rx="4" ry="5"/>
 <path style="opacity:0.2;fill:#ffffff" d="M 12 17 C 10.892 17 10 18.338 10 20 L 10 21 C 10 19.338 10.892 18 12 18 C 13.108 18 14 19.338 14 21 L 14 20 C 14 18.338 13.108 17 12 17 z"/>
 <path style="opacity:0.2;fill:#ffffff" d="M 36 17 C 34.892 17 34 18.338 34 20 L 34 21 C 34 19.338 34.892 18 36 18 C 37.108 18 38 19.338 38 21 L 38 20 C 38 18.338 37.108 17 36 17 z"/>
 <path style="opacity:0.2;fill:#ffffff" d="M 24 24 A 4 5 0 0 0 20 29 A 4 5 0 0 0 20.021484 29.478516 A 4 5 0 0 1 24 25 A 4 5 0 0 1 27.978516 29.521484 A 4 5 0 0 0 28 29 A 4 5 0 0 0 24 24 z"/>
</svg>
